icons/lines/be.svg

<svg xmlns="http://www.w3.org/2000/svg" width="24" height="24" viewBox="0 0 24 24" fill="none" stroke="currentColor" stroke-width="2" stroke-linecap="round" stroke-linejoin="round">
  <path d="M14 14h8a4 4 0 1 0-4 4h1.7" />
  <path d="M19.5 7.5h-3" />
  <path d="M2 12h7c1.7 0 3 1.3 3 3s-1.3 3-3 3H3a1 1 0 0 1-1-1V7a1 1 0 0 1 1-1h5c1.7 0 3 1.3 3 3s-1.3 3-3 3" />
</svg>

<svg xmlns="http://www.w3.org/2000/svg" width="24" height="24" viewBox="0 0 24 24" fill="none" stroke="currentColor" stroke-width="2" stroke-linecap="round" stroke-linejoin="round" >
  <path d="M2 12H9C10.7 12 12 13.3 12 15C12 16.7 10.7 18 9 18H3C2.4 18 2 17.6 2 17V7C2 6.4 2.4 6 3 6H8C9.7 6 11 7.3 11 9C11 10.7 9.7 12 8 12H2Z" stroke-miterlimit="10"/>
  <path d="M14 14H22C22 11.8 20.2 10 18 10C15.8 10 14 11.8 14 14ZM14 14C14 16.2 15.8 18 18 18H19.7" stroke-miterlimit="10"/>
  <path d="M19.5 7.5H16.5" stroke-miterlimit="10"/>
  </svg>
